X:587
T:Little Judique
C:Don Messer
S:Colin Hume's website,  colinhume.com  - chords can also be printed below the stave.
N:For the dance "The Kitchen Triad" by Fried de Metz Herman
Q:1/2=112
M:2/2
R:Reel
L:1/8
K:D
P:A
fg | "D"a^gab a2f2 | d2A2 A2fg | a^gab a2f2 | d6 ef |
"Em"gfga g2e2 | "A7"c2A2 c2ef | "Em"gfga g2e2 | "A7"c6 fg |
"D"a^gab a2f2 | d2A2 A2fg | a^gab a2f2 | "D7"d4 g3a |
"G"b2gb "D/F#"a2fa | "A7/E"g2eg "D"f2ed | "A7"c2Ac a2c2 | "D"d4 "E7"c3d ||
K:A
P:B
|: "A"e4 e3f | "A7"e2c2 B2A2 | "D"agab a2f2 | "A"e4 f3g |
"D"a3b a2f2 | "A"e2c2 a2 f2 | [1 "Bm"e2c2 B2A2 | "E7"B6 cd :| [2 "E7"e2c2 B2c2 | "A"A6 |]

